X:1
L:1/8
M:4/4
K:D
|:""D"" FA (3.A.A.A BA (3.A.A.A | dfed""G"" BcdA |""D"" FA (3.A.A.A BA (3.A.A.A | dfed""G"" B2 AG | 
""D"" FA (3.A.A.A BA (3.A.A.A | dfed""G"" Bdef | g3 e""D"" f3 e |""A"" dfed B2 A2 ::""D"" fa (3.a.a.a bfaf | 
""G"" gfed""A"" Bcde |""D"" fa (3.a.a.a bfaf |""G"" gfed""A"" B2 A2 |""D"" fa (3.a.a.a bfaf |""G"" gfed""A"" Bdef | 
""G"" g3 e""D"" f3 e |""A"" dfed B2 A2 :|
